; G-Code generated by Simplify3D(R) Version 4.1.2
; Feb 14, 2021 at 3:30:37 PM
; Settings Summary
;   processName,Process1
;   applyToModels,Case
;   profileName,Wanhao Duplicator 6 - High Strength - LinAdvance - v4 (modified)
;   profileVersion,2021-02-07 10:26:37
;   baseProfile,Default
;   printMaterial,PLA
;   printQuality,Medium
;   printExtruders,
;   extruderName,Primary Extruder
;   extruderToolheadNumber,0
;   extruderDiameter,0.4
;   extruderAutoWidth,1
;   extruderWidth,0.48
;   extrusionMultiplier,0.9
;   extruderUseRetract,1
;   extruderRetractionDistance,2
;   extruderExtraRestartDistance,0
;   extruderRetractionZLift,0
;   extruderRetractionSpeed,3600
;   extruderUseCoasting,0
;   extruderCoastingDistance,0.2
;   extruderUseWipe,1
;   extruderWipeDistance,0.5
;   primaryExtruder,0
;   layerHeight,0.2
;   topSolidLayers,3
;   bottomSolidLayers,3
;   perimeterOutlines,3
;   printPerimetersInsideOut,1
;   startPointOption,2
;   startPointOriginX,0
;   startPointOriginY,0
;   sequentialIslands,0
;   spiralVaseMode,0
;   firstLayerHeightPercentage,75
;   firstLayerWidthPercentage,100
;   firstLayerUnderspeed,0.5
;   useRaft,0
;   raftExtruder,0
;   raftTopLayers,3
;   raftBaseLayers,2
;   raftOffset,3
;   raftSeparationDistance,0.14
;   raftTopInfill,100
;   aboveRaftSpeedMultiplier,0.3
;   useSkirt,1
;   skirtExtruder,0
;   skirtLayers,1
;   skirtOutlines,2
;   skirtOffset,4
;   usePrimePillar,0
;   primePillarExtruder,999
;   primePillarWidth,12
;   primePillarLocation,7
;   primePillarSpeedMultiplier,1
;   useOozeShield,0
;   oozeShieldExtruder,999
;   oozeShieldOffset,2
;   oozeShieldOutlines,1
;   oozeShieldSidewallShape,1
;   oozeShieldSidewallAngle,30
;   oozeShieldSpeedMultiplier,1
;   infillExtruder,0
;   internalInfillPattern,Rectilinear
;   externalInfillPattern,Rectilinear
;   infillPercentage,20
;   outlineOverlapPercentage,40
;   infillExtrusionWidthPercentage,125
;   minInfillLength,5
;   infillLayerInterval,1
;   internalInfillAngles,45,-45
;   overlapInternalInfillAngles,0
;   externalInfillAngles,45,-45
;   generateSupport,1
;   supportExtruder,0
;   supportInfillPercentage,30
;   supportExtraInflation,0
;   supportBaseLayers,1
;   denseSupportExtruder,0
;   denseSupportLayers,0
;   denseSupportInfillPercentage,70
;   supportLayerInterval,1
;   supportHorizontalPartOffset,0.3
;   supportUpperSeparationLayers,1
;   supportLowerSeparationLayers,1
;   supportType,0
;   supportGridSpacing,2.5
;   maxOverhangAngle,45
;   supportAngles,0
;   temperatureName,Primary Extruder,Build Plate
;   temperatureNumber,0,1
;   temperatureSetpointCount,1,2
;   temperatureSetpointLayers,1,1,2
;   temperatureSetpointTemperatures,215,60,55
;   temperatureStabilizeAtStartup,1,1
;   temperatureHeatedBed,0,1
;   fanLayers,1,2,3,4
;   fanSpeeds,0,25,50,75
;   blipFanToFullPower,0
;   adjustSpeedForCooling,1
;   minSpeedLayerTime,15
;   minCoolingSpeedSlowdown,20
;   increaseFanForCooling,0
;   minFanLayerTime,45
;   maxCoolingFanSpeed,100
;   increaseFanForBridging,0
;   bridgingFanSpeed,100
;   use5D,1
;   relativeEdistances,0
;   allowEaxisZeroing,1
;   independentExtruderAxes,0
;   includeM10123,0
;   stickySupport,1
;   applyToolheadOffsets,0
;   gcodeXoffset,0
;   gcodeYoffset,0
;   gcodeZoffset,0
;   overrideMachineDefinition,0
;   machineTypeOverride,0
;   strokeXoverride,200
;   strokeYoverride,200
;   strokeZoverride,200
;   originOffsetXoverride,0
;   originOffsetYoverride,0
;   originOffsetZoverride,0
;   homeXdirOverride,-1
;   homeYdirOverride,-1
;   homeZdirOverride,-1
;   flipXoverride,1
;   flipYoverride,-1
;   flipZoverride,1
;   toolheadOffsets,0,0|0,0|0,0|0,0|0,0|0,0
;   overrideFirmwareConfiguration,0
;   firmwareTypeOverride,RepRap (Marlin/Repetier/Sprinter)
;   GPXconfigOverride,r2
;   baudRateOverride,115200
;   overridePrinterModels,0
;   printerModelsOverride
;   startingGcode,; Duplicator 6 / Monoprice Maker Ultimate Start Script V3,M107 ; start with the fan off,G28 ; home,G29 ; Auto Bed Level,G1 Z15 F3600 ; move the platform 15mm down from home,G0 X0 Y0 ; Rapid move X0 Y0,G92 E0 ; zero the extruded length,G1 X8.0 Z0.0 F3600,G1 X10.0 Z0.2 F3600,G1 X50 Z0.4 E9.0 F1000 ; prime,G1 X100.0 E33 F1000 ; prime,G1 X110 Z0.2 F9000 ; pull away wipe,G1 X120 F9000     ; finish wipe,G1 Z2 F1000 ; lift head before first move,G92 E0 ; zero extruder again,M117 Printing...
;   layerChangeGcode,
;   retractionGcode,
;   toolChangeGcode,
;   endingGcode,M107 ; fan off,M104 S0,M140 S0,G91 ; relative movements,G1 Z30 F3600,G90 : back to absolute movement,G92 E1,G1 E-1 F300,G28 X0 Y0,M84
;   exportFileFormat,gcode
;   celebration,0
;   celebrationSong,Funky Town
;   postProcessing,
;   defaultSpeed,3000
;   outlineUnderspeed,0.5
;   solidInfillUnderspeed,0.8
;   supportUnderspeed,0.8
;   rapidXYspeed,4800
;   rapidZspeed,1002
;   minBridgingArea,50
;   bridgingExtraInflation,0
;   bridgingExtrusionMultiplier,1
;   bridgingSpeedMultiplier,1
;   useFixedBridgingAngle,0
;   fixedBridgingAngle,0
;   applyBridgingToPerimeters,0
;   filamentDiameters,1.75|1.75|1.75|1.75|1.75|1.75
;   filamentPricesPerKg,30|46|46|46|46|46
;   filamentDensities,1.25|1.25|1.25|1.25|1.25|1.25
;   useMinPrintHeight,0
;   minPrintHeight,0
;   useMaxPrintHeight,0
;   maxPrintHeight,0
;   useDiaphragm,0
;   diaphragmLayerInterval,20
;   robustSlicing,1
;   mergeAllIntoSolid,0
;   onlyRetractWhenCrossingOutline,1
;   retractBetweenLayers,1
;   useRetractionMinTravel,0
;   retractionMinTravel,3
;   retractWhileWiping,0
;   onlyWipeOutlines,1
;   avoidCrossingOutline,0
;   maxMovementDetourFactor,3
;   toolChangeRetractionDistance,12
;   toolChangeExtraRestartDistance,-0.5
;   toolChangeRetractionSpeed,600
;   externalThinWallType,0
;   internalThinWallType,2
;   thinWallAllowedOverlapPercentage,10
;   singleExtrusionMinLength,1
;   singleExtrusionMinPrintingWidthPercentage,50
;   singleExtrusionMaxPrintingWidthPercentage,200
;   singleExtrusionEndpointExtension,0.2
;   horizontalSizeCompensation,0
G90
M82
M106 S0
M140 S60
M190 S60
M104 S215 T0
M109 S215 T0
; Duplicator 6 / Monoprice Maker Ultimate Start Script V3
M107 ; start with the fan off
G28 ; home
G29 ; Auto Bed Level
G1 Z15 F3600 ; move the platform 15mm down from home
G0 X0 Y0 ; Rapid move X0 Y0
G92 E0 ; zero the extruded length
G1 X8.0 Z0.0 F3600
G1 X10.0 Z0.2 F3600
G1 X50 Z0.4 E9.0 F1000 ; prime
G1 X100.0 E33 F1000 ; prime
G1 X110 Z0.2 F9000 ; pull away wipe
G1 X120 F9000     ; finish wipe
G1 Z2 F1000 ; lift head before first move
G92 E0 ; zero extruder again
M117 Printing...
; process Process1
; layer 1, Z = 0.150
T0
G92 E0.0000
G1 E-2.0000 F3600
; feature skirt
; tool H0.150 W0.480
G1 Z0.150 F1002
G1 X53.045 Y65.280 F4800
G1 E0.0000 F3600
G92 E0.0000
G1 X146.955 Y65.280 E2.5300 F1500
G1 X149.720 Y68.045 E2.6353
G1 X149.720 Y131.955 E4.3571
G1 X146.955 Y134.720 E4.4625
G1 X53.045 Y134.720 E6.9925
G1 X50.280 Y131.955 E7.0978
G1 X50.280 Y68.045 E8.8196
G1 X53.045 Y65.280 E8.9250
G92 E0.0000
G1 E-2.0000 F3600
G1 X53.244 Y65.760 F4800
G1 E0.0000 F3600
G92 E0.0000
G1 X146.756 Y65.760 E2.5193 F1500
G1 X149.240 Y68.244 E2.6139
G1 X149.240 Y131.756 E4.3250
G1 X146.756 Y134.240 E4.4196
G1 X53.244 Y134.240 E6.9389
G1 X50.760 Y131.756 E7.0336
G1 X50.760 Y68.244 E8.7446
G1 X53.244 Y65.760 E8.8393
G92 E0.0000
G1 E-2.0000 F3600
; feature inner perimeter
G1 X56.200 Y71.200 F4800
G1 E0.0000 F3600
G92 E0.0000
G1 X143.800 Y71.200 E2.3600 F1125
G1 X143.800 Y128.800 E3.9118
G1 X56.200 Y128.800 E6.2718
G1 X56.200 Y71.200 E7.8236
G1 X55.720 Y70.720 F4800
G92 E0.0000
G1 X144.280 Y70.720 E2.3859 F1125
G1 X144.280 Y129.280 E3.9635
G1 X55.720 Y129.280 E6.3494
G1 X55.720 Y70.720 E7.9270
; feature outer perimeter
G1 X55.240 Y70.240 F4800
G92 E0.0000
G1 X144.760 Y70.240 E2.4117 F750
G1 X144.760 Y129.760 E4.0152
G1 X55.240 Y129.760 E6.4270
G1 X55.240 Y70.240 E8.0305
G1 X55.740 Y70.240 F750
; feature solid layer
G1 X56.557 Y128.512 F4800
G92 E0.0000
G1 X56.488 Y128.443 E0.0026 F1200
G1 X56.488 Y127.764 E0.0209
G1 X57.236 Y128.512 E0.0494
G1 X57.914 Y128.512 E0.0677
G1 X56.488 Y127.086 E0.1220
G1 X56.488 Y126.407 E0.1403
G1 X58.593 Y128.512 E0.2205
G1 X59.272 Y128.512 E0.2388
G1 X56.488 Y125.728 E0.3449
G1 X56.488 Y125.049 E0.3632
G1 X59.951 Y128.512 E0.4951
G1 X60.630 Y128.512 E0.5134
G1 X56.488 Y124.370 E0.6712
G1 X56.488 Y123.691 E0.6895
G1 X61.309 Y128.512 E0.8732
G1 X61.987 Y128.512 E0.8914
G1 X56.488 Y123.013 E1.1010
G1 X56.488 Y122.334 E1.1193
G1 X62.666 Y128.512 E1.3547
G1 X63.345 Y128.512 E1.3729
G1 X56.488 Y121.655 E1.6342
G1 X56.488 Y120.976 E1.6525
G1 X64.024 Y128.512 E1.9396
G1 X64.703 Y128.512 E1.9579
G1 X56.488 Y120.297 E2.2709
G1 X56.488 Y119.618 E2.2892
G1 X65.382 Y128.512 E2.6280
G1 X66.060 Y128.512 E2.6463
G1 X56.488 Y118.940 E3.0110
G1 X56.488 Y118.261 E3.0293
G1 X66.739 Y128.512 E3.4198
G1 X67.418 Y128.512 E3.4381
G1 X56.488 Y117.582 E3.8546
G1 X56.488 Y116.903 E3.8729
G1 X68.097 Y128.512 E4.3151
G1 X68.776 Y128.512 E4.3334
G1 X56.488 Y116.224 E4.8016
G1 X56.488 Y115.546 E4.8199
G1 X69.454 Y128.512 E5.3139
G1 X70.133 Y128.512 E5.3322
G1 X56.488 Y114.867 E5.8521
G1 X56.488 Y114.188 E5.8704
G1 X70.812 Y128.512 E6.4161
G1 X71.491 Y128.512 E6.4344
G1 X56.488 Y113.509 E7.0060
G1 X56.488 Y112.830 E7.0243
G1 X72.170 Y128.512 E7.6218
G1 X72.849 Y128.512 E7.6401
G1 X56.488 Y112.151 E8.2634
G1 X56.488 Y111.473 E8.2817
G1 X73.527 Y128.512 E8.9309
G1 X74.206 Y128.512 E8.9492
G1 X56.488 Y110.794 E9.6242
G1 X56.488 Y110.115 E9.6425
G1 X74.885 Y128.512 E10.3434
G1 X75.564 Y128.512 E10.3617
G1 X56.488 Y109.436 E11.0885
G1 X56.488 Y108.757 E11.1068
G1 X76.243 Y128.512 E11.8595
G1 X76.922 Y128.512 E11.8777
G1 X56.488 Y108.078 E12.6563
G1 X56.488 Y107.400 E12.6746
G1 X77.600 Y128.512 E13.4789
G1 X78.279 Y128.512 E13.4972
G1 X56.488 Y106.721 E14.3275
G1 X56.488 Y106.042 E14.3457
G1 X78.958 Y128.512 E15.2018
G1 X79.637 Y128.512 E15.2201
G1 X56.488 Y105.363 E16.1021
G1 X56.488 Y104.684 E16.1204
G1 X80.316 Y128.512 E17.0282
G1 X80.994 Y128.512 E17.0465
G1 X56.488 Y104.006 E17.9802
G1 X56.488 Y103.327 E17.9985
G1 X81.673 Y128.512 E18.9580
G1 X82.352 Y128.512 E18.9763
G1 X56.488 Y102.648 E19.9618
G1 X56.488 Y101.969 E19.9800
G1 X83.031 Y128.512 E20.9913
G1 X83.710 Y128.512 E21.0096
G1 X56.488 Y101.290 E22.0468
G1 X56.488 Y100.611 E22.0650
G1 X84.389 Y128.512 E23.1281
G1 X85.067 Y128.512 E23.1463
G1 X56.488 Y99.933 E24.2352
G1 X56.488 Y99.254 E24.2535
G1 X85.746 Y128.512 E25.3682
G1 X86.425 Y128.512 E25.3865
G1 X56.488 Y98.575 E26.5271
G1 X56.488 Y97.896 E26.5454
G1 X87.104 Y128.512 E27.7119
G1 X87.783 Y128.512 E27.7302
G1 X56.488 Y97.217 E28.9225
G1 X56.488 Y96.539 E28.9408
G1 X88.461 Y128.512 E30.1590
G1 X89.140 Y128.512 E30.1772
G1 X56.488 Y95.860 E31.4213
G1 X56.488 Y95.181 E31.4396
G1 X89.819 Y128.512 E32.7095
G1 X90.498 Y128.512 E32.7278
G1 X56.488 Y94.502 E34.0236
G1 X56.488 Y93.823 E34.0419
G1 X91.177 Y128.512 E35.3635
G1 X91.856 Y128.512 E35.3818
G1 X56.488 Y93.144 E36.7293
G1 X56.488 Y92.466 E36.7476
G1 X92.534 Y128.512 E38.1209
G1 X93.213 Y128.512 E38.1392
G1 X56.488 Y91.787 E39.5385
G1 X56.488 Y91.108 E39.5567
G1 X93.892 Y128.512 E40.9818
G1 X94.571 Y128.512 E41.0001
G1 X56.488 Y90.429 E42.4511
G1 X56.488 Y89.750 E42.4694
G1 X95.250 Y128.512 E43.9462
G1 X95.929 Y128.512 E43.9645
G1 X56.488 Y89.071 E45.4671
G1 X56.488 Y88.393 E45.4854
G1 X96.607 Y128.512 E47.0140
G1 X97.286 Y128.512 E47.0323
G1 X56.488 Y87.714 E48.5867
G1 X56.488 Y87.035 E48.6050
G1 X97.965 Y128.512 E50.1852
G1 X98.644 Y128.512 E50.2035
G1 X56.488 Y86.356 E51.8097
G1 X56.488 Y85.677 E51.8279
G1 X99.323 Y128.512 E53.4599
G1 X100.001 Y128.512 E53.4782
G1 X56.488 Y84.999 E55.1361
G1 X56.488 Y84.320 E55.1544
G1 X100.680 Y128.512 E56.8381
G1 X101.359 Y128.512 E56.8564
G1 X56.488 Y83.641 E58.5660
G1 X56.488 Y82.962 E58.5843
G1 X102.038 Y128.512 E60.3197
G1 X102.717 Y128.512 E60.3380
G1 X56.488 Y82.283 E62.0993
G1 X56.488 Y81.604 E62.1176
G1 X103.396 Y128.512 E63.9048
G1 X104.074 Y128.512 E63.9231
G1 X56.488 Y80.926 E65.7361
G1 X56.488 Y80.247 E65.7544
G1 X104.753 Y128.512 E67.5933
G1 X105.432 Y128.512 E67.6116
G1 X56.488 Y79.568 E69.4763
G1 X56.488 Y78.889 E69.4946
G1 X106.111 Y128.512 E71.3853
G1 X106.790 Y128.512 E71.4035
G1 X56.488 Y78.210 E73.3200
G1 X56.488 Y77.531 E73.3383
G1 X107.469 Y128.512 E75.2807
G1 X108.147 Y128.512 E75.2990
G1 X56.488 Y76.853 E77.2672
G1 X56.488 Y76.174 E77.2855
G1 X108.826 Y128.512 E79.2795
G1 X109.505 Y128.512 E79.2978
G1 X56.488 Y75.495 E81.3178
G1 X56.488 Y74.816 E81.3361
G1 X110.184 Y128.512 E83.3819
G1 X110.863 Y128.512 E83.4002
G1 X56.488 Y74.137 E85.4718
G1 X56.488 Y73.459 E85.4901
G1 X111.541 Y128.512 E87.5876
G1 X112.220 Y128.512 E87.6059
G1 X56.488 Y72.780 E89.7293
G1 X56.488 Y72.101 E89.7476
G1 X112.899 Y128.512 E91.8969
G1 X113.578 Y128.512 E91.9152
G1 X56.554 Y71.488 E94.0878
G1 X57.233 Y71.488 E94.1061
G1 X114.257 Y128.512 E96.2787
G1 X114.936 Y128.512 E96.2970
G1 X57.912 Y71.488 E98.4696
G1 X58.590 Y71.488 E98.4879
G1 X115.614 Y128.512 E100.6605
G1 X116.293 Y128.512 E100.6788
G1 X59.269 Y71.488 E102.8514
G1 X59.948 Y71.488 E102.8697
G1 X116.972 Y128.512 E105.0423
G1 X117.651 Y128.512 E105.0606
G1 X60.627 Y71.488 E107.2332
G1 X61.306 Y71.488 E107.2514
G1 X118.330 Y128.512 E109.4241
G1 X119.008 Y128.512 E109.4423
G1 X61.984 Y71.488 E111.6150
G1 X62.663 Y71.488 E111.6332
G1 X119.687 Y128.512 E113.8059
G1 X120.366 Y128.512 E113.8241
G1 X63.342 Y71.488 E115.9968
G1 X64.021 Y71.488 E116.0150
G1 X121.045 Y128.512 E118.1876
G1 X121.724 Y128.512 E118.2059
G1 X64.700 Y71.488 E120.3785
G1 X65.379 Y71.488 E120.3968
G1 X122.403 Y128.512 E122.5694
G1 X123.081 Y128.512 E122.5877
G1 X66.057 Y71.488 E124.7603
G1 X66.736 Y71.488 E124.7786
G1 X123.760 Y128.512 E126.9512
G1 X124.439 Y128.512 E126.9695
G1 X67.415 Y71.488 E129.1421
G1 X68.094 Y71.488 E129.1604
G1 X125.118 Y128.512 E131.3330
G1 X125.797 Y128.512 E131.3513
G1 X68.773 Y71.488 E133.5239
G1 X69.452 Y71.488 E133.5422
G1 X126.476 Y128.512 E135.7148
G1 X127.154 Y128.512 E135.7331
G1 X70.130 Y71.488 E137.9057
G1 X70.809 Y71.488 E137.9240
G1 X127.833 Y128.512 E140.0966
G1 X128.512 Y128.512 E140.1149
G1 X71.488 Y71.488 E142.2875
G1 X72.167 Y71.488 E142.3058
G1 X129.191 Y128.512 E144.4784
G1 X129.870 Y128.512 E144.4967
G1 X72.846 Y71.488 E146.6693
G1 X73.524 Y71.488 E146.6876
G1 X130.548 Y128.512 E148.8602
G1 X131.227 Y128.512 E148.8785
G1 X74.203 Y71.488 E151.0511
G1 X74.882 Y71.488 E151.0694
G1 X131.906 Y128.512 E153.2420
G1 X132.585 Y128.512 E153.2603
G1 X75.561 Y71.488 E155.4329
G1 X76.240 Y71.488 E155.4512
G1 X133.264 Y128.512 E157.6238
G1 X133.943 Y128.512 E157.6421
G1 X76.919 Y71.488 E159.8147
G1 X77.597 Y71.488 E159.8330
G1 X134.621 Y128.512 E162.0056
G1 X135.300 Y128.512 E162.0239
G1 X78.276 Y71.488 E164.1965
G1 X78.955 Y71.488 E164.2148
G1 X135.979 Y128.512 E166.3874
G1 X136.658 Y128.512 E166.4057
G1 X79.634 Y71.488 E168.5783
G1 X80.313 Y71.488 E168.5966
G1 X137.337 Y128.512 E170.7692
G1 X138.016 Y128.512 E170.7875
G1 X80.992 Y71.488 E172.9601
G1 X81.670 Y71.488 E172.9784
G1 X138.694 Y128.512 E175.1510
G1 X139.373 Y128.512 E175.1693
G1 X82.349 Y71.488 E177.3419
G1 X83.028 Y71.488 E177.3602
G1 X140.052 Y128.512 E179.5328
G1 X140.731 Y128.512 E179.5511
G1 X83.707 Y71.488 E181.7237
G1 X84.386 Y71.488 E181.7420
G1 X141.410 Y128.512 E183.9146
G1 X142.088 Y128.512 E183.9329
G1 X85.064 Y71.488 E186.1055
G1 X85.743 Y71.488 E186.1238
G1 X142.767 Y128.512 E188.2964
G1 X143.446 Y128.512 E188.3147
G1 X86.422 Y71.488 E190.4873
G1 X87.101 Y71.488 E190.5056
G1 X143.512 Y127.899 E192.6548
G1 X143.512 Y127.220 E192.6731
G1 X87.780 Y71.488 E194.7965
G1 X88.459 Y71.488 E194.8148
G1 X143.512 Y126.541 E196.9123
G1 X143.512 Y125.863 E196.9306
G1 X89.137 Y71.488 E199.0023
G1 X89.816 Y71.488 E199.0206
G1 X143.512 Y125.184 E201.0664
G1 X143.512 Y124.505 E201.0847
G1 X90.495 Y71.488 E203.1046
G1 X91.174 Y71.488 E203.1229
G1 X143.512 Y123.826 E205.1170
G1 X143.512 Y123.147 E205.1353
G1 X91.853 Y71.488 E207.1035
G1 X92.532 Y71.488 E207.1218
G1 X143.512 Y122.468 E209.0641
G1 X143.512 Y121.790 E209.0824
G1 X93.210 Y71.488 E210.9989
G1 X93.889 Y71.488 E211.0172
