; G-Code generated by Simplify3D(R) Version 4.1.2
; Feb 14, 2021 at 3:33:28 PM
; Settings Summary
;   processName,Process1
;   applyToModels,Lid
;   profileName,Wanhao Duplicator 6 - High Strength - LinAdvance - v4 (modified)
;   profileVersion,2021-02-07 10:26:37
;   baseProfile,Default
;   printMaterial,PLA
;   printQuality,Medium
;   printExtruders,
;   extruderName,Primary Extruder
;   extruderToolheadNumber,0
;   extruderDiameter,0.4
;   extruderAutoWidth,1
;   extruderWidth,0.48
;   extrusionMultiplier,0.9
;   extruderUseRetract,1
;   extruderRetractionDistance,2
;   extruderExtraRestartDistance,0
;   extruderRetractionZLift,0
;   extruderRetractionSpeed,3600
;   extruderUseCoasting,0
;   extruderCoastingDistance,0.2
;   extruderUseWipe,1
;   extruderWipeDistance,0.5
;   primaryExtruder,0
;   layerHeight,0.2
;   topSolidLayers,3
;   bottomSolidLayers,3
;   perimeterOutlines,3
;   printPerimetersInsideOut,1
;   startPointOption,2
;   startPointOriginX,0
;   startPointOriginY,0
;   sequentialIslands,0
;   spiralVaseMode,0
;   firstLayerHeightPercentage,75
;   firstLayerWidthPercentage,100
;   firstLayerUnderspeed,0.5
;   useRaft,0
;   raftExtruder,0
;   raftTopLayers,3
;   raftBaseLayers,2
;   raftOffset,3
;   raftSeparationDistance,0.14
;   raftTopInfill,100
;   aboveRaftSpeedMultiplier,0.3
;   useSkirt,1
;   skirtExtruder,0
;   skirtLayers,1
;   skirtOutlines,2
;   skirtOffset,4
;   usePrimePillar,0
;   primePillarExtruder,999
;   primePillarWidth,12
;   primePillarLocation,7
;   primePillarSpeedMultiplier,1
;   useOozeShield,0
;   oozeShieldExtruder,999
;   oozeShieldOffset,2
;   oozeShieldOutlines,1
;   oozeShieldSidewallShape,1
;   oozeShieldSidewallAngle,30
;   oozeShieldSpeedMultiplier,1
;   infillExtruder,0
;   internalInfillPattern,Rectilinear
;   externalInfillPattern,Rectilinear
;   infillPercentage,20
;   outlineOverlapPercentage,40
;   infillExtrusionWidthPercentage,125
;   minInfillLength,5
;   infillLayerInterval,1
;   internalInfillAngles,45,-45
;   overlapInternalInfillAngles,0
;   externalInfillAngles,45,-45
;   generateSupport,1
;   supportExtruder,0
;   supportInfillPercentage,30
;   supportExtraInflation,0
;   supportBaseLayers,1
;   denseSupportExtruder,0
;   denseSupportLayers,0
;   denseSupportInfillPercentage,70
;   supportLayerInterval,1
;   supportHorizontalPartOffset,0.3
;   supportUpperSeparationLayers,1
;   supportLowerSeparationLayers,1
;   supportType,0
;   supportGridSpacing,2.5
;   maxOverhangAngle,45
;   supportAngles,0
;   temperatureName,Primary Extruder,Build Plate
;   temperatureNumber,0,1
;   temperatureSetpointCount,1,2
;   temperatureSetpointLayers,1,1,2
;   temperatureSetpointTemperatures,215,60,55
;   temperatureStabilizeAtStartup,1,1
;   temperatureHeatedBed,0,1
;   fanLayers,1,2,3,4
;   fanSpeeds,0,25,50,75
;   blipFanToFullPower,0
;   adjustSpeedForCooling,1
;   minSpeedLayerTime,15
;   minCoolingSpeedSlowdown,20
;   increaseFanForCooling,0
;   minFanLayerTime,45
;   maxCoolingFanSpeed,100
;   increaseFanForBridging,0
;   bridgingFanSpeed,100
;   use5D,1
;   relativeEdistances,0
;   allowEaxisZeroing,1
;   independentExtruderAxes,0
;   includeM10123,0
;   stickySupport,1
;   applyToolheadOffsets,0
;   gcodeXoffset,0
;   gcodeYoffset,0
;   gcodeZoffset,0
;   overrideMachineDefinition,0
;   machineTypeOverride,0
;   strokeXoverride,200
;   strokeYoverride,200
;   strokeZoverride,200
;   originOffsetXoverride,0
;   originOffsetYoverride,0
;   originOffsetZoverride,0
;   homeXdirOverride,-1
;   homeYdirOverride,-1
;   homeZdirOverride,-1
;   flipXoverride,1
;   flipYoverride,-1
;   flipZoverride,1
;   toolheadOffsets,0,0|0,0|0,0|0,0|0,0|0,0
;   overrideFirmwareConfiguration,0
;   firmwareTypeOverride,RepRap (Marlin/Repetier/Sprinter)
;   GPXconfigOverride,r2
;   baudRateOverride,115200
;   overridePrinterModels,0
;   printerModelsOverride
;   startingGcode,; Duplicator 6 / Monoprice Maker Ultimate Start Script V3,M107 ; start with the fan off,G28 ; home,G29 ; Auto Bed Level,G1 Z15 F3600 ; move the platform 15mm down from home,G0 X0 Y0 ; Rapid move X0 Y0,G92 E0 ; zero the extruded length,G1 X8.0 Z0.0 F3600,G1 X10.0 Z0.2 F3600,G1 X50 Z0.4 E9.0 F1000 ; prime,G1 X100.0 E33 F1000 ; prime,G1 X110 Z0.2 F9000 ; pull away wipe,G1 X120 F9000     ; finish wipe,G1 Z2 F1000 ; lift head before first move,G92 E0 ; zero extruder again,M117 Printing...
;   layerChangeGcode,
;   retractionGcode,
;   toolChangeGcode,
;   endingGcode,M107 ; fan off,M104 S0,M140 S0,G91 ; relative movements,G1 Z30 F3600,G90 : back to absolute movement,G92 E1,G1 E-1 F300,G28 X0 Y0,M84
;   exportFileFormat,gcode
;   celebration,0
;   celebrationSong,Funky Town
;   postProcessing,
;   defaultSpeed,3000
;   outlineUnderspeed,0.5
;   solidInfillUnderspeed,0.8
;   supportUnderspeed,0.8
;   rapidXYspeed,4800
;   rapidZspeed,1002
;   minBridgingArea,50
;   bridgingExtraInflation,0
;   bridgingExtrusionMultiplier,1
;   bridgingSpeedMultiplier,1
;   useFixedBridgingAngle,0
;   fixedBridgingAngle,0
;   applyBridgingToPerimeters,0
;   filamentDiameters,1.75|1.75|1.75|1.75|1.75|1.75
;   filamentPricesPerKg,30|46|46|46|46|46
;   filamentDensities,1.25|1.25|1.25|1.25|1.25|1.25
;   useMinPrintHeight,0
;   minPrintHeight,0
;   useMaxPrintHeight,0
;   maxPrintHeight,0
;   useDiaphragm,0
;   diaphragmLayerInterval,20
;   robustSlicing,1
;   mergeAllIntoSolid,0
;   onlyRetractWhenCrossingOutline,1
;   retractBetweenLayers,1
;   useRetractionMinTravel,0
;   retractionMinTravel,3
;   retractWhileWiping,0
;   onlyWipeOutlines,1
;   avoidCrossingOutline,0
;   maxMovementDetourFactor,3
;   toolChangeRetractionDistance,12
;   toolChangeExtraRestartDistance,-0.5
;   toolChangeRetractionSpeed,600
;   externalThinWallType,0
;   internalThinWallType,2
;   thinWallAllowedOverlapPercentage,10
;   singleExtrusionMinLength,1
;   singleExtrusionMinPrintingWidthPercentage,50
;   singleExtrusionMaxPrintingWidthPercentage,200
;   singleExtrusionEndpointExtension,0.2
;   horizontalSizeCompensation,0
G90
M82
M106 S0
M140 S60
M190 S60
M104 S215 T0
M109 S215 T0
; Duplicator 6 / Monoprice Maker Ultimate Start Script V3
M107 ; start with the fan off
G28 ; home
G29 ; Auto Bed Level
G1 Z15 F3600 ; move the platform 15mm down from home
G0 X0 Y0 ; Rapid move X0 Y0
G92 E0 ; zero the extruded length
G1 X8.0 Z0.0 F3600
G1 X10.0 Z0.2 F3600
G1 X50 Z0.4 E9.0 F1000 ; prime
G1 X100.0 E33 F1000 ; prime
G1 X110 Z0.2 F9000 ; pull away wipe
G1 X120 F9000     ; finish wipe
G1 Z2 F1000 ; lift head before first move
G92 E0 ; zero extruder again
M117 Printing...
; process Process1
; layer 1, Z = 0.150
T0
G92 E0.0000
G1 E-2.0000 F3600
; feature skirt
; tool H0.150 W0.480
G1 Z0.150 F1002
G1 X53.045 Y65.280 F4800
G1 E0.0000 F3600
G92 E0.0000
G1 X146.955 Y65.280 E2.5300 F1500
G1 X149.720 Y68.045 E2.6353
G1 X149.720 Y131.955 E4.3571
G1 X146.955 Y134.720 E4.4625
G1 X53.045 Y134.720 E6.9925
G1 X50.280 Y131.955 E7.0978
G1 X50.280 Y68.045 E8.8196
G1 X53.045 Y65.280 E8.9250
G92 E0.0000
G1 E-2.0000 F3600
G1 X53.244 Y65.760 F4800
G1 E0.0000 F3600
G92 E0.0000
G1 X146.756 Y65.760 E2.5193 F1500
G1 X149.240 Y68.244 E2.6139
G1 X149.240 Y131.756 E4.3250
G1 X146.756 Y134.240 E4.4196
G1 X53.244 Y134.240 E6.9389
G1 X50.760 Y131.756 E7.0336
G1 X50.760 Y68.244 E8.7446
G1 X53.244 Y65.760 E8.8393
G92 E0.0000
G1 E-2.0000 F3600
; feature inner perimeter
G1 X61.295 Y71.200 F4800
G1 E0.0000 F3600
G92 E0.0000
G1 X138.653 Y71.200 E2.0841 F1125
G1 X138.063 Y71.904 E2.1088
G1 X137.675 Y72.670 E2.1320
G1 X137.482 Y73.495 E2.1548
G1 X137.482 Y74.326 E2.1772
G1 X137.681 Y75.160 E2.2003
G1 X138.055 Y75.905 E2.2227
G1 X138.609 Y76.560 E2.2459
G1 X139.274 Y77.056 E2.2682
G1 X140.051 Y77.390 E2.2910
G1 X140.884 Y77.536 E2.3138
G1 X141.728 Y77.486 E2.3366
G1 X142.536 Y77.242 E2.3593
G1 X143.256 Y76.826 E2.3817
G1 X143.800 Y76.312 E2.4019
G1 X143.800 Y123.685 E3.6781
G1 X143.254 Y123.173 E3.6983
G1 X142.536 Y122.758 E3.7206
G1 X141.726 Y122.513 E3.7434
G1 X140.868 Y122.466 E3.7666
G1 X140.050 Y122.610 E3.7890
G1 X139.274 Y122.944 E3.8117
G1 X138.596 Y123.450 E3.8345
G1 X138.053 Y124.098 E3.8573
G1 X137.675 Y124.855 E3.8801
G1 X137.482 Y125.676 E3.9028
G1 X137.482 Y126.505 E3.9252
G1 X137.675 Y127.330 E3.9480
G1 X138.063 Y128.096 E3.9711
G1 X138.653 Y128.800 E3.9959
G1 X61.294 Y128.800 E6.0800
G1 X61.698 Y128.418 E6.0949
G1 X62.154 Y127.724 E6.1173
G1 X62.444 Y126.931 E6.1401
G1 X62.542 Y126.091 E6.1628
G1 X62.413 Y124.983 E6.1929
G1 X63.127 Y125.308 E6.2140
G1 X64.085 Y125.553 E6.2407
G1 X65.063 Y125.626 E6.2671
G1 X65.922 Y125.551 E6.2903
G1 X66.873 Y125.308 E6.3168
G1 X67.773 Y124.898 E6.3434
G1 X68.588 Y124.337 E6.3701
G1 X69.292 Y123.643 E6.3967
G1 X70.000 Y122.642 E6.4297
G1 X70.708 Y123.643 E6.4628
G1 X71.412 Y124.337 E6.4894
G1 X72.227 Y124.898 E6.5161
G1 X73.127 Y125.308 E6.5427
G1 X74.085 Y125.553 E6.5693
G1 X75.063 Y125.626 E6.5958
G1 X75.922 Y125.551 E6.6190
G1 X76.873 Y125.308 E6.6454
G1 X77.773 Y124.898 E6.6721
G1 X78.588 Y124.337 E6.6987
G1 X79.292 Y123.643 E6.7254
G1 X80.001 Y122.641 E6.7584
G1 X80.589 Y123.480 E6.7861
G1 X80.721 Y123.656 E6.7920
G1 X81.412 Y124.337 E6.8181
G1 X82.227 Y124.898 E6.8448
G1 X83.127 Y125.308 E6.8714
G1 X84.078 Y125.551 E6.8979
G1 X84.937 Y125.626 E6.9211
G1 X85.915 Y125.553 E6.9475
G1 X86.873 Y125.308 E6.9742
G1 X87.773 Y124.898 E7.0008
G1 X88.588 Y124.337 E7.0274
G1 X89.292 Y123.643 E7.0541
G1 X90.000 Y122.642 E7.0871
G1 X90.708 Y123.643 E7.1201
G1 X91.412 Y124.337 E7.1468
G1 X92.227 Y124.898 E7.1734
G1 X93.127 Y125.308 E7.2001
G1 X94.085 Y125.553 E7.2267
G1 X95.063 Y125.626 E7.2531
G1 X95.922 Y125.551 E7.2764
G1 X96.873 Y125.308 E7.3028
G1 X97.773 Y124.898 E7.3295
G1 X98.588 Y124.337 E7.3561
G1 X99.292 Y123.643 E7.3827
G1 X99.863 Y122.835 E7.4094
G1 X100.285 Y121.940 E7.4360
G1 X100.542 Y120.988 E7.4626
G1 X100.562 Y120.771 E7.4685
G1 X100.630 Y120.000 E7.4893
G1 X100.562 Y119.228 E7.5102
G1 X100.542 Y119.013 E7.5160
G1 X100.341 Y118.262 E7.5370
G1 X100.281 Y118.053 E7.5428
G1 X99.863 Y117.165 E7.5693
G1 X99.292 Y116.357 E7.5959
G1 X98.588 Y115.663 E7.6226
G1 X97.625 Y115.000 E7.6541
G1 X98.588 Y114.337 E7.6855
G1 X99.292 Y113.643 E7.7122
G1 X99.863 Y112.835 E7.7388
G1 X100.281 Y111.947 E7.7653
G1 X100.341 Y111.738 E7.7711
G1 X100.542 Y110.987 E7.7921
G1 X100.562 Y110.771 E7.7979
G1 X100.630 Y110.000 E7.8188
G1 X100.562 Y109.228 E7.8397
G1 X100.542 Y109.012 E7.8455
G1 X100.285 Y108.060 E7.8721
G1 X99.863 Y107.165 E7.8987
G1 X99.292 Y106.357 E7.9254
G1 X98.588 Y105.663 E7.9520
G1 X97.625 Y105.000 E7.9835
G1 X98.588 Y104.337 E8.0150
G1 X99.292 Y103.643 E8.0416
G1 X99.863 Y102.835 E8.0683
G1 X100.285 Y101.940 E8.0949
G1 X100.543 Y100.985 E8.1216
G1 X100.630 Y100.000 E8.1482
G1 X100.543 Y99.016 E8.1749
G1 X100.341 Y98.262 E8.1959
G1 X100.281 Y98.053 E8.2018
G1 X99.863 Y97.165 E8.2282
G1 X99.292 Y96.357 E8.2548
G1 X98.588 Y95.663 E8.2815
G1 X97.625 Y95.000 E8.3130
G1 X98.588 Y94.337 E8.3445
G1 X99.292 Y93.643 E8.3711
G1 X99.863 Y92.835 E8.3978
G1 X100.285 Y91.940 E8.4244
G1 X100.543 Y90.985 E8.4511
G1 X100.630 Y90.000 E8.4777
G1 X100.543 Y89.015 E8.5043
G1 X100.285 Y88.060 E8.5310
G1 X99.865 Y87.168 E8.5576
G1 X99.411 Y86.520 E8.5789
G1 X99.279 Y86.344 E8.5848
G1 X98.588 Y85.663 E8.6109
G1 X97.625 Y85.000 E8.6424
G1 X98.588 Y84.337 E8.6739
G1 X99.292 Y83.643 E8.7006
G1 X99.863 Y82.835 E8.7272
G1 X100.285 Y81.940 E8.7539
G1 X100.543 Y80.985 E8.7805
G1 X100.630 Y80.000 E8.8072
G1 X100.543 Y79.015 E8.8338
G1 X100.285 Y78.060 E8.8605
G1 X99.863 Y77.165 E8.8871
G1 X99.292 Y76.357 E8.9137
G1 X98.588 Y75.663 E8.9404
G1 X97.773 Y75.102 E8.9670
G1 X96.879 Y74.695 E8.9935
G1 X96.046 Y74.472 E9.0167
G1 X95.071 Y74.373 E9.0431
G1 X94.085 Y74.447 E9.0698
G1 X93.127 Y74.692 E9.0964
G1 X92.227 Y75.102 E9.1231
G1 X91.412 Y75.663 E9.1497
G1 X90.708 Y76.357 E9.1764
G1 X90.000 Y77.358 E9.2094
G1 X89.292 Y76.357 E9.2424
G1 X88.588 Y75.663 E9.2690
G1 X87.773 Y75.102 E9.2957
G1 X86.879 Y74.695 E9.3222
G1 X86.046 Y74.472 E9.3454
G1 X85.071 Y74.373 E9.3718
G1 X84.085 Y74.447 E9.3984
G1 X83.127 Y74.692 E9.4251
G1 X82.227 Y75.102 E9.4517
G1 X81.412 Y75.663 E9.4784
G1 X80.708 Y76.357 E9.5050
G1 X80.000 Y77.358 E9.5380
G1 X79.292 Y76.357 E9.5710
G1 X78.588 Y75.663 E9.5977
G1 X77.773 Y75.102 E9.6243
G1 X76.879 Y74.695 E9.6508
G1 X76.046 Y74.472 E9.6740
G1 X75.071 Y74.373 E9.7004
G1 X74.085 Y74.447 E9.7271
G1 X73.127 Y74.692 E9.7537
G1 X72.227 Y75.102 E9.7804
G1 X71.412 Y75.663 E9.8070
G1 X70.708 Y76.357 E9.8337
G1 X70.000 Y77.358 E9.8667
G1 X69.292 Y76.357 E9.8997
G1 X68.588 Y75.663 E9.9263
G1 X67.773 Y75.102 E9.9530
G1 X66.879 Y74.695 E9.9795
G1 X66.046 Y74.472 E10.0027
G1 X65.071 Y74.373 E10.0291
G1 X64.085 Y74.447 E10.0557
G1 X63.127 Y74.692 E10.0824
G1 X62.413 Y75.017 E10.1035
G1 X62.542 Y73.909 E10.1336
G1 X62.446 Y73.085 E10.1559
G1 X62.156 Y72.277 E10.1791
G1 X61.688 Y71.569 E10.2019
G1 X61.295 Y71.200 E10.2164
G92 E0.0000
G1 E-2.0000 F3600
G1 X60.058 Y77.331 F4800
G1 E0.0000 F3600
G92 E0.0000
G1 X59.715 Y78.060 E0.0217 F1125
G1 X59.457 Y79.015 E0.0483
G1 X59.370 Y80.000 E0.0750
G1 X59.457 Y80.985 E0.1016
G1 X59.715 Y81.940 E0.1283
G1 X60.135 Y82.832 E0.1548
G1 X60.589 Y83.481 E0.1762
G1 X60.721 Y83.656 E0.1821
G1 X61.412 Y84.337 E0.2082
G1 X62.375 Y85.000 E0.2397
G1 X61.412 Y85.663 E0.2712
G1 X60.708 Y86.357 E0.2978
G1 X60.137 Y87.165 E0.3245
G1 X59.715 Y88.060 E0.3511
G1 X59.457 Y89.015 E0.3778
G1 X59.370 Y89.999 E0.4044
G1 X59.438 Y90.771 E0.4253
G1 X59.458 Y90.987 E0.4311
G1 X59.659 Y91.738 E0.4521
G1 X59.719 Y91.947 E0.4579
G1 X60.135 Y92.832 E0.4843
G1 X60.589 Y93.481 E0.5056
G1 X60.721 Y93.656 E0.5115
G1 X61.412 Y94.337 E0.5377
G1 X62.375 Y95.000 E0.5692
G1 X61.412 Y95.663 E0.6006
G1 X60.708 Y96.357 E0.6273
G1 X60.137 Y97.165 E0.6539
G1 X59.715 Y98.060 E0.6806
G1 X59.458 Y99.012 E0.7072
G1 X59.438 Y99.229 E0.7130
G1 X59.370 Y100.000 E0.7339
G1 X59.438 Y100.771 E0.7547
G1 X59.458 Y100.987 E0.7606
G1 X59.659 Y101.738 E0.7815
G1 X59.719 Y101.947 E0.7874
G1 X60.137 Y102.835 E0.8138
G1 X60.708 Y103.643 E0.8405
G1 X61.412 Y104.337 E0.8671
G1 X62.375 Y105.000 E0.8986
G1 X61.412 Y105.663 E0.9301
G1 X60.708 Y106.357 E0.9567
G1 X60.137 Y107.165 E0.9834
G1 X59.715 Y108.060 E1.0100
G1 X59.457 Y109.015 E1.0367
G1 X59.370 Y110.000 E1.0633
G1 X59.457 Y110.985 E1.0900
G1 X59.715 Y111.940 E1.1166
G1 X60.137 Y112.835 E1.1433
G1 X60.708 Y113.643 E1.1699
G1 X61.412 Y114.337 E1.1966
G1 X62.375 Y115.000 E1.2281
G1 X61.412 Y115.663 E1.2596
G1 X60.708 Y116.357 E1.2862
G1 X60.137 Y117.165 E1.3129
G1 X59.715 Y118.060 E1.3395
G1 X59.457 Y119.015 E1.3662
G1 X59.370 Y120.000 E1.3928
G1 X59.457 Y120.985 E1.4194
G1 X59.715 Y121.940 E1.4461
G1 X60.058 Y122.669 E1.4678
G1 X59.544 Y122.513 E1.4823
G1 X58.686 Y122.466 E1.5054
G1 X57.869 Y122.610 E1.5278
G1 X57.093 Y122.944 E1.5505
G1 X56.200 Y123.609 E1.5805
G1 X56.200 Y76.391 E2.8526
G1 X57.093 Y77.056 E2.8826
G1 X57.869 Y77.390 E2.9054
G1 X58.702 Y77.536 E2.9282
G1 X59.547 Y77.486 E2.9510
G1 X60.058 Y77.331 E2.9653
G92 E0.0000
G1 E-2.0000 F3600
G1 X67.625 Y85.000 F4800
G1 E0.0000 F3600
G92 E0.0000
G1 X68.588 Y84.337 E0.0315 F1125
G1 X69.292 Y83.643 E0.0581
G1 X70.001 Y82.641 E0.0912
G1 X70.589 Y83.480 E0.1188
G1 X70.721 Y83.656 E0.1247
G1 X71.412 Y84.337 E0.1509
G1 X72.375 Y85.000 E0.1824
G1 X71.412 Y85.663 E0.2139
G1 X70.708 Y86.357 E0.2405
G1 X69.999 Y87.359 E0.2736
G1 X69.411 Y86.520 E0.3012
G1 X69.279 Y86.344 E0.3071
G1 X68.588 Y85.663 E0.3333
G1 X67.625 Y85.000 E0.3647
G92 E0.0000
G1 E-2.0000 F3600
G1 X70.001 Y92.641 F4800
G1 E0.0000 F3600
G92 E0.0000
G1 X70.589 Y93.481 E0.0276 F1125
G1 X70.721 Y93.656 E0.0335
G1 X71.412 Y94.337 E0.0597
G1 X72.375 Y95.000 E0.0912
G1 X71.412 Y95.663 E0.1227
G1 X70.708 Y96.357 E0.1493
G1 X70.000 Y97.358 E0.1823
G1 X69.292 Y96.357 E0.2153
G1 X68.588 Y95.663 E0.2420
G1 X67.625 Y95.000 E0.2735
G1 X68.588 Y94.337 E0.3050
G1 X69.292 Y93.643 E0.3316
G1 X70.001 Y92.641 E0.3647
G92 E0.0000
G1 E-2.0000 F3600
G1 X77.625 Y95.000 F4800
G1 E0.0000 F3600
G92 E0.0000
G1 X78.588 Y94.337 E0.0315 F1125
G1 X79.292 Y93.643 E0.0581
G1 X80.001 Y92.641 E0.0912
G1 X80.589 Y93.480 E0.1188
G1 X80.721 Y93.656 E0.1247
